!!!OTL: 705a. Sie allein war mein Glueck.
!!!ARE: Europa, Mitteleuropa, Deutschland, Hochwald, Thalsang
!!!SCT: E0705
!!!TXL: @@DE
!!!YEM: Copyright 1995, estate of Helmut Schaffrath.
**kern	**text
*ICvox	*
*M3/4	*
*k[]	*
*C:	*
!LO:TX:a:t=Ziemlich langsam.	!
!LO:TX:a:t=Becker, Rhein. Liederb. Nr. 51. Aus Thalſang (Hochwald).	!
{8g	Als
8e	ich
8f	auf
=1	=1
8.g	Ber-
16a	-gen
8g	ſtand,
8g	ſah
8f	ich
8e	ʒwei
=2	=2
8.f	Rös-
16g	-lein
8f}	blühn,
{8e	die
8f	ei-
8d	-ne
=3	=3
8.b	blüht
16b	für
8b	mich,
8a	die
8g	an-
8f	-dre
=4	=4
4e	nicht.
8r}	.
{8g	Nur
8e	ſie
8f	al-
=5	=5
8.gL	-lei-
16aJ	.
8g	-ne
8g	war
8f	mei-
8e	-ne
=6	=6
8.fL	Freu-
16gJ	.
8f}	-de,
{8e	nur
8f	ſie
8d	al-
=7	=7
4b	-lei-
8b	-ne,
8a	ſie
8g	war
8f	mein
=8	=8
4e	Glück.
8r}	.
==	==
!!!AGN: Liebes - Lied, Leid, Klage
!!!ONB: ESAC (Essen Associative Code) Database: ERK2
!!!AMT: simple triple
!!!AIN: vox
!!!EED: Helmut Schaffrath
!!!EEV: 1.0
!!!GTL: Liebeslieder [Neuere (aus dem 18. bis 19. Jahrh.) - Liebesleid] 678-740
!!!URL-scan: https://rosdok.uni-rostock.de/mcrviewer/recordIdentifier/rosdok_ppn745177662/iview2/phys_0509.iview2?x=193.8995864193107&y=1896.2982329234947&scale=0.7029437510502773&rotation=0&layout=singlePageLayout
!!!ENC: Anna Maria Matuszewska
!!!EEV: 2024/12/16
*-	*-
